svgs/sharp-solid/house-chimney-user.svg

<svg xmlns="http://www.w3.org/2000/svg" viewBox="0 0 576 512"><!--! Font Awesome Pro 6.6.0 by @fontawesome - https://fontawesome.com License - https://fontawesome.com/license (Commercial License) Copyright 2024 Fonticons, Inc. --><path d="M511.8 287.6l64.2 0 0-47.6-64-53.4L512 32l-96 0 0 74.5L288.4 0 0 240l0 47.6 64.1 0 0 224.4 448.7 0-1-224.4zM288 160a64 64 0 1 1 0 128 64 64 0 1 1 0-128zm80 160l32 96-224 0 32-96 160 0z"/></svg>

<svg xmlns="http://www.w3.org/2000/svg" viewBox="0 0 576 512"><!--! Font Awesome Pro 6.5.2 by @fontawesome - https://fontawesome.com License - https://fontawesome.com/license (Commercial License) Copyright 2024 Fonticons, Inc. --><path d="M511.8 287.6H576V240l-64-53.4V32H416v74.5L288.4 0 0 240v47.6H64.1V512H512.8l-1-224.4zM288 160a64 64 0 1 1 0 128 64 64 0 1 1 0-128zm80 160l32 96H176l32-96H368z"/></svg>
